X: 35635
T: Sailing Into Walpole's Marsh
R: reel
M: 4/4
K: Adorian
A3A~A2cA|G2EA GED2|EAA^G ABcd|egdB cedc|
AG~G2 A2GA|GEDE G2EG|A2A^G ABcd|1 egdB cedc:|2 egdB cAA2||
eg~g2 e2af|gedB cA~A2|eg~g2 ea~a2|age^c dafd|
~g3^g a2fa|gedB cAAG|c2Gc AcGc|1 eage d2z2:|2 eage d2dB||

